X:1
T:Cod Liver Ile
M:3/8
L:1/8
K:F
 z2 A/2A/2| AGA| cAG| FDD| D z F| DFF| GAG| FDD| D z c/2c/2| ddd|d-c A|\
 AGF| c2 c| dcd|A-G A|F-D D| D2 z|
